resources/icons/transactions/migration-small.svg

<svg viewBox="0 0 20 20" fill="none" xmlns="http://www.w3.org/2000/svg">
<path fill-rule="evenodd" clip-rule="evenodd" d="M10.0851 8.34319C10.0458 8.30161 9.97962 8.30149 9.94011 8.34293L1.17353 17.5399C1.09057 17.6269 0.952797 17.5204 1.01616 17.4182L9.92746 3.0473C9.96665 2.98411 10.0586 2.98426 10.0976 3.04758L18.9421 17.415C19.0052 17.5174 18.867 17.6235 18.7843 17.5362L10.0851 8.34319ZM6.10526 15.5387C6.02153 15.5387 5.97487 15.442 6.027 15.3765L7.31511 13.7575C7.33409 13.7337 7.3629 13.7198 7.39337 13.7198H12.5354C12.5659 13.7198 12.5947 13.7337 12.6137 13.7576L13.9011 15.3765C13.9532 15.442 13.9065 15.5387 13.8228 15.5387H6.10526ZM7.91126 12.8132C7.82598 12.8132 7.77984 12.7133 7.83513 12.6484L9.90374 10.219C9.94385 10.1719 10.0167 10.1722 10.0565 10.2195L12.0972 12.6489C12.1519 12.7139 12.1056 12.8132 12.0206 12.8132H7.91126Z" fill="var(--migration-icon-color-border, #5452CE)"/>
</svg>

<svg viewBox="0 0 20 20" fill="none" xmlns="http://www.w3.org/2000/svg"><path fill-rule="evenodd" clip-rule="evenodd" d="M10.085 8.343a.1.1 0 00-.145 0L1.174 17.54c-.083.087-.221-.02-.158-.122l8.911-14.37a.1.1 0 01.17 0l8.845 14.367c.063.102-.075.209-.158.121l-8.699-9.193zm-3.98 7.196a.1.1 0 01-.078-.162l1.288-1.62a.1.1 0 01.078-.037h5.142a.1.1 0 01.079.038l1.287 1.619a.1.1 0 01-.078.162H6.105zm1.806-2.726a.1.1 0 01-.076-.165l2.069-2.429a.1.1 0 01.152 0l2.041 2.43a.1.1 0 01-.076.164H7.91z" fill="var(--migration-icon-color-border, #5452CE)"/></svg>
